X: 27418
T: Moll & Tiarna
R: reel
M: 4/4
K: Dmajor
|:Ad (3ddd efdB|Ad (3ddd dedB|ABde fdeg|fage fdBd|
Ad (3ddd efdB|Ad (3ddd dedB|ABde faed|cA (3AAA cA (3AAA:|
|:fdgd fdgd|fdgd fddg|fdgd fefg|aA (3AAA aAAg|
fdgd fdgd|fdgd fefg|abag eged|cA (3AAA cA (3AAA:|

